frontend/public/svg/weather/thunderstorm.svg

<svg width="161" height="157" viewBox="0 0 161 157" fill="none" xmlns="http://www.w3.org/2000/svg">
<g clip-path="url(#clip0)">
<path d="M64.7675 156.276C63.7226 154.774 63.2145 153.306 63.8013 151.346C65.2675 146.447 66.4689 141.469 67.7557 136.518C67.9776 135.664 68.0996 134.788 68.332 133.594C67.3895 133.643 66.6695 133.651 65.9555 133.722C64.415 133.974 62.861 134.133 61.3016 134.199C58.5896 134.141 57.2854 132.145 58.201 129.604C58.5729 128.671 59.0346 127.777 59.5793 126.933C64.5235 118.549 70.2439 110.647 76.6649 103.333C77.9421 101.901 79.3283 100.635 81.3248 100.479C84.0112 102.067 84.153 104.442 83.542 106.971C82.8672 109.764 82.0324 112.52 81.1791 115.626C83.6437 115.149 85.9212 114.75 88.1764 114.253C89.5245 113.956 90.933 113.55 91.9175 114.796C93.0162 116.183 92.7235 117.754 91.8879 119.197C90.0968 122.292 88.2722 125.367 86.4495 128.443C82.8062 134.591 79.195 140.758 75.4887 146.869C74.0054 149.351 72.3777 151.743 70.6128 154.034C69.854 155.006 68.5322 155.544 67.4663 156.275L64.7675 156.276Z" fill="black"/>
<path d="M100.065 37.3793C102.542 35.7916 104.631 34.2758 106.877 33.0478C117.605 27.1676 128.86 26.3678 140.376 30.1936C155.472 35.21 161.456 50.2988 160.143 62.2048C159.012 72.4673 153.928 80.7372 146.591 87.7357C143.946 90.2594 140.511 91.49 137.074 92.5657C129.765 94.855 122.169 95.5849 114.612 96.4125C96.6282 98.3815 78.5468 98.3467 60.485 98.6342C51.8292 98.772 43.1969 98.6342 34.7446 96.4683C32.2551 95.8297 29.775 95.1071 27.3623 94.2262C16.7533 90.3539 9.30768 83.207 5.28499 72.636C-1.04145 56.008 -0.133063 39.7814 9.52295 24.7768C17.5743 12.2651 29.1415 3.56744 44.0108 1.03463C62.8641 -2.17683 78.7109 4.02905 90.8328 18.9929C95.183 24.3558 98.0715 30.5153 100.065 37.3793ZM61.2942 88.7445C66.6763 88.5476 72.0701 88.457 77.4481 88.1427C92.0129 87.2894 106.566 86.2019 121.139 85.514C126.517 85.2633 131.768 83.7957 136.497 81.2222C144.898 76.7473 149.033 69.6346 149.417 60.3082C149.836 50.2006 144.363 42.1934 135.299 39.4906C129.877 37.926 124.145 37.773 118.648 39.0458C112.642 40.3401 107.733 43.6159 103.452 47.8775C101.549 49.7737 99.8377 51.8654 97.9298 53.759C96.6046 55.0716 95.0215 55.7566 93.0381 55.0806C91.075 54.4118 90.1961 52.9263 89.8817 51.0958C89.8049 50.2109 89.9441 49.3212 90.2867 48.5018C91.625 44.7029 91.0743 41.019 89.8043 37.3383C87.9797 32.0264 85.0846 27.1455 81.2988 22.9969C71.5095 12.2277 59.1697 8.75781 45.0184 10.6579C28.0678 15.8259 16.0812 26.0244 11.7619 43.7369C10.376 49.6488 10.2798 55.7903 11.4802 61.7427C13.7642 73.7767 19.8811 82.5592 32.2826 85.961C33.6846 86.3463 35.084 86.7486 36.5011 87.0768C44.6764 88.9414 52.9745 88.9585 61.2942 88.7445Z" fill="black"/>
</g>
<defs>
<clipPath id="clip0">
<rect width="159.49" height="156.865" fill="white" transform="translate(0.923828 0.0263672)"/>
</clipPath>
</defs>
</svg>

<svg xmlns="http://www.w3.org/2000/svg" width="161" height="157" fill="none" viewBox="0 0 161 157"><g fill="#000" clip-path="url(#a)"><path d="M64.768 156.276c-1.045-1.502-1.553-2.97-.967-4.93 1.466-4.899 2.668-9.877 3.955-14.828.222-.854.344-1.73.576-2.924-.942.049-1.662.057-2.376.128a39 39 0 0 1-4.654.477c-2.712-.058-4.017-2.054-3.101-4.595.372-.933.834-1.827 1.378-2.671a155.5 155.5 0 0 1 17.086-23.6c1.277-1.432 2.663-2.698 4.66-2.854 2.686 1.588 2.828 3.963 2.217 6.492-.675 2.793-1.51 5.549-2.363 8.655 2.465-.477 4.742-.876 6.997-1.373 1.349-.297 2.757-.703 3.742.543 1.098 1.387.805 2.958-.03 4.401-1.791 3.095-3.616 6.17-5.439 9.246-3.643 6.148-7.254 12.315-10.96 18.426a74 74 0 0 1-4.876 7.165c-.759.972-2.08 1.51-3.147 2.241zM100.065 37.38c2.477-1.588 4.566-3.104 6.812-4.332 10.728-5.88 21.983-6.68 33.499-2.854 15.096 5.016 21.08 20.105 19.767 32.01-1.131 10.263-6.215 18.533-13.552 25.532-2.645 2.523-6.08 3.754-9.517 4.83-7.309 2.289-14.905 3.019-22.462 3.846-17.984 1.97-36.065 1.935-54.127 2.222-8.656.138-17.288 0-25.74-2.166-2.49-.638-4.97-1.36-7.383-2.242-10.609-3.872-18.054-11.019-22.077-21.59-6.326-16.628-5.418-32.855 4.238-47.86C17.574 12.267 29.14 3.568 44.011 1.036c18.853-3.212 34.7 2.994 46.822 17.958 4.35 5.363 7.239 11.522 9.232 18.386m-38.77 51.365c5.381-.197 10.775-.288 16.153-.602 14.565-.854 29.118-1.941 43.691-2.629a35.6 35.6 0 0 0 15.358-4.292c8.401-4.475 12.536-11.587 12.92-20.914.419-10.107-5.054-18.115-14.118-20.817a33.1 33.1 0 0 0-16.651-.445c-6.006 1.294-10.915 4.57-15.196 8.831-1.903 1.897-3.614 3.988-5.522 5.882-1.325 1.313-2.909 1.998-4.892 1.322-1.963-.67-2.842-2.155-3.156-3.985a5.5 5.5 0 0 1 .405-2.594c1.338-3.8.787-7.483-.483-11.164A41.1 41.1 0 0 0 81.3 22.997c-9.79-10.77-22.13-14.24-36.28-12.34-16.951 5.169-28.938 15.367-33.257 33.08a42.3 42.3 0 0 0-.282 18.006c2.284 12.034 8.401 20.816 20.803 24.218 1.402.385 2.801.788 4.218 1.116 8.175 1.864 16.474 1.882 24.793 1.668"/></g><defs><clipPath id="a"><path fill="#fff" d="M.924.026h159.49v156.865H.924z"/></clipPath></defs></svg>
